icons/svg/calendar.svg

<svg width="24" height="24" viewBox="0 0 24 24" fill="none" xmlns="http://www.w3.org/2000/svg">
<path d="M17.25 4.75H6.74997C4.81697 4.75 3.24997 6.317 3.24997 8.25V17.75C3.24997 19.683 4.81697 21.25 6.74997 21.25H17.25C19.183 21.25 20.75 19.683 20.75 17.75V8.25C20.75 6.317 19.183 4.75 17.25 4.75Z" stroke="currentColor" stroke-width="1.5" stroke-linecap="round" stroke-linejoin="round"/>
<path d="M3.24997 9.25H20.75" stroke="currentColor" stroke-width="1.5" stroke-linecap="round" stroke-linejoin="round"/>
<path d="M7.36105 4.75L7.36105 2.75" stroke="currentColor" stroke-width="1.5" stroke-linecap="round" stroke-linejoin="round"/>
<path d="M16.6111 4.75L16.6111 2.75" stroke="currentColor" stroke-width="1.5" stroke-linecap="round" stroke-linejoin="round"/>
</svg>

<svg xmlns="http://www.w3.org/2000/svg" width="24" height="24" fill="none" viewBox="0 0 24 24"><path stroke="currentColor" stroke-linecap="round" stroke-linejoin="round" stroke-width="1.5" d="M17.25 4.75H6.75a3.5 3.5 0 0 0-3.5 3.5v9.5a3.5 3.5 0 0 0 3.5 3.5h10.5a3.5 3.5 0 0 0 3.5-3.5v-9.5a3.5 3.5 0 0 0-3.5-3.5m-14 4.5h17.5M7.361 4.75v-2m9.25 2v-2"/></svg>
